X:132
T:Ne
R:reel
C:Bruce Osborne - June 2002
Z:abc by bosborne@kos.net
M:2/4
L:1/8
K:Bb
F/E/|D/F/B/c/ d/B/F/B/|D/F/B/c/ dc/B/|A/F/F/c/ A/F/c/F/|B/A/B/c/ dF/E/|\
D/F/B/c/ d/B/F/B/|D/F/B/c/ d/B/F/B/|A/F/F/c/ A/F/c/F/|B/A/d/c/ B:|
|:F/E/|D/B,/B,/F/ D/B,/F/B,/|E/G/B/G/ c/G/B/G/|F/A/c/A/ e/A/c/A/|B/c/d/g/ fF/E/|\
D/B,/B,/F/ D/B,/F/B,/|E/G/B/G/ c/G/B/G/|F/A/c/A/ e/A/c/A/|B/d/c/A/ B:|
